packages/assets/static/images/icons/bold/barricade--bold.svg

<svg width="24" height="24" viewBox="0 0 24 24" xmlns="http://www.w3.org/2000/svg">
<path d="M20.9999 4.875H2.99988C2.5026 4.875 2.02568 5.07254 1.67405 5.42417C1.32242 5.77581 1.12488 6.25272 1.12488 6.75V13.5C1.12488 13.9973 1.32242 14.4742 1.67405 14.8258C2.02568 15.1775 2.5026 15.375 2.99988 15.375H4.87488V18C4.87488 18.2984 4.9934 18.5845 5.20438 18.7955C5.41536 19.0065 5.70151 19.125 5.99988 19.125C6.29825 19.125 6.58439 19.0065 6.79537 18.7955C7.00635 18.5845 7.12488 18.2984 7.12488 18V15.375H16.8749V18C16.8749 18.2984 16.9934 18.5845 17.2044 18.7955C17.4154 19.0065 17.7015 19.125 17.9999 19.125C18.2982 19.125 18.5844 19.0065 18.7954 18.7955C19.0064 18.5845 19.1249 18.2984 19.1249 18V15.375H20.9999C21.4972 15.375 21.9741 15.1775 22.3257 14.8258C22.6773 14.4742 22.8749 13.9973 22.8749 13.5V6.75C22.8749 6.25272 22.6773 5.77581 22.3257 5.42417C21.9741 5.07254 21.4972 4.875 20.9999 4.875ZM20.6249 10.4062L17.3436 7.125H20.6249V10.4062ZM16.5936 13.125L10.5936 7.125H14.1561L20.1561 13.125H16.5936ZM9.84363 13.125L3.84363 7.125H7.40613L13.4061 13.125H9.84363ZM3.37488 9.84375L6.65613 13.125H3.37488V9.84375Z"/>
</svg>

<svg viewBox="0 0 24 24" xmlns="http://www.w3.org/2000/svg" aria-hidden="true" fill="currentColor"><path d="M21 4.875H3A1.875 1.875 0 0 0 1.125 6.75v6.75A1.875 1.875 0 0 0 3 15.375h1.875V18a1.125 1.125 0 1 0 2.25 0v-2.625h9.75V18a1.125 1.125 0 1 0 2.25 0v-2.625H21a1.875 1.875 0 0 0 1.875-1.875V6.75A1.875 1.875 0 0 0 21 4.875m-.375 5.531-3.281-3.281h3.28zm-4.031 2.719-6-6h3.562l6 6zm-6.75 0-6-6h3.562l6 6zm-6.47-3.281 3.282 3.281H3.375z"/></svg>
